;FLAVOR:RepRap
;TIME:3569
;Filament used: 3.36793m
;Layer height: 0.2
;Generated with Cura_SteamEngine 2.5.0
M190 S60
M104 S210
M109 S210
G28 ;Home
G1 Z15.0 F6000 ;Move the platform down 15mm
;Prime the extruder
G92 E0
G1 F200 E3
G92 E0
;LAYER_COUNT:122
;LAYER:0
M107
G0 F3600 X61.762 Y68.264 Z0.3
G0 X61.414 Y68.673
;TYPE:SKIRT
G1 F1800 X61.762 Y68.264 E0.02679
G1 X62.167 Y67.913 E0.05353
G1 X62.429 Y67.735 E0.06933
G1 X63.195 Y67.262 E0.11425
G1 X63.671 Y67.015 E0.141
G1 X64.178 Y66.841 E0.16774
G1 X64.585 Y66.76 E0.18845
G1 X65.353 Y66.652 E0.22714
G1 X65.855 Y66.617 E0.25225
G1 X90.817 Y66.626 E1.49761
G1 X91.248 Y66.652 E1.51915
G1 X96.774 Y67.32 E1.79685
G1 X102.234 Y67.679 E2.06984
G1 X105.83 Y67.746 E2.24927
G1 X127.052 Y67.771 E3.30804
G1 X127.587 Y67.812 E3.33481
G1 X128.064 Y67.917 E3.35918
G1 X128.771 Y68.125 E3.39595
G1 X129.273 Y68.315 E3.42273
G1 X129.741 Y68.576 E3.44946
G1 X129.968 Y68.74 E3.46343
G1 X130.521 Y69.171 E3.49841
G1 X130.918 Y69.531 E3.52515
G1 X131.263 Y69.954 E3.55238
G1 X131.572 Y70.398 E3.57937
G1 X131.845 Y70.859 E3.6061
G1 X131.984 Y71.18 E3.62355
G1 X132.121 Y71.542 E3.64286
G1 X132.273 Y72.056 E3.6696
G1 X132.343 Y72.541 E3.69405
G1 X132.427 Y73.638 E3.74894
G1 X132.438 Y73.915 E3.76277
G1 X132.415 Y108.043 E5.46542
G1 X132.375 Y108.578 E5.49219
G1 X132.271 Y109.048 E5.5162
G1 X132.061 Y109.769 E5.55367
G1 X131.873 Y110.271 E5.58041
G1 X131.622 Y110.726 E5.60634
G1 X131.417 Y111.041 E5.62509
G1 X131.092 Y111.467 E5.65182
G1 X130.815 Y111.747 E5.67147
G1 X130.333 Y112.183 E5.7039
G1 X129.91 Y112.512 E5.73063
G1 X129.279 Y112.846 E5.76625
G1 X128.603 Y113.122 E5.80268
G1 X128.093 Y113.287 E5.82942
G1 X127.58 Y113.373 E5.85537
G1 X127.04 Y113.424 E5.88243
G1 X126.701 Y113.44 E5.89936
G1 X101.733 Y113.43 E7.14502
G1 X101.444 Y113.418 E7.15945
G1 X98.459 Y113.177 E7.30886
G1 X92.955 Y112.973 E7.58364
G1 X87.53 Y113.079 E7.85435
G1 X82.042 Y113.497 E8.12894
G1 X79.266 Y113.826 E8.2684
G1 X78.731 Y113.849 E8.29512
G1 X78.285 Y113.808 E8.31747
G1 X72.889 Y112.962 E8.58996
G1 X67.428 Y112.416 E8.86377
G1 X65.175 Y112.269 E8.97641
G1 X64.644 Y112.195 E9.00316
G1 X64.087 Y112.025 E9.03221
G1 X63.297 Y111.713 E9.07459
G1 X62.814 Y111.48 E9.10134
G1 X62.371 Y111.177 E9.12812
G1 X62.143 Y110.979 E9.14319
G1 X61.631 Y110.494 E9.17837
G1 X61.27 Y110.097 E9.20514
G1 X60.905 Y109.526 E9.23895
G1 X60.629 Y108.989 E9.26907
G1 X60.42 Y108.495 E9.29583
G1 X60.267 Y107.848 E9.329
G1 X60.159 Y107.085 E9.36745
G1 X60.123 Y106.579 E9.39276
G1 X60.132 Y72.113 E11.11227
G1 X60.172 Y71.578 E11.13904
G1 X60.252 Y71.194 E11.15861
G1 X60.464 Y70.392 E11.19999
G1 X60.639 Y69.885 E11.22675
G1 X60.887 Y69.41 E11.25349
G1 X61.038 Y69.187 E11.26692
G1 X61.414 Y68.673 E11.2987
G0 F3600 X61.737 Y68.909
G1 F1800 X62.067 Y68.525 E11.32396
G1 X62.639 Y68.075 E11.36027
G1 X63.405 Y67.602 E11.40518
G1 X63.855 Y67.371 E11.43042
G1 X64.335 Y67.214 E11.45561
G1 X64.64 Y67.156 E11.4711
G1 X65.408 Y67.048 E11.50979
G1 X65.855 Y67.017 E11.53215
G1 X90.817 Y67.026 E12.77751
G1 X91.2 Y67.049 E12.79665
G1 X96.736 Y67.718 E13.07485
G1 X102.222 Y68.079 E13.34914
G1 X105.823 Y68.146 E13.52883
G1 X127.052 Y68.171 E14.58795
G1 X127.556 Y68.212 E14.61317
G1 X127.951 Y68.301 E14.63337
G1 X128.658 Y68.509 E14.67014
G1 X129.13 Y68.69 E14.69536
G1 X129.722 Y69.055 E14.73006
G1 X130.275 Y69.486 E14.76504
G1 X130.648 Y69.827 E14.79025
G1 X130.935 Y70.182 E14.81303
G1 X131.244 Y70.626 E14.84001
G1 X131.499 Y71.063 E14.86526
G1 X131.61 Y71.321 E14.87927
G1 X131.747 Y71.683 E14.89858
G1 X131.888 Y72.169 E14.92383
G1 X131.945 Y72.572 E14.94413
G1 X132.029 Y73.669 E14.99902
G1 X132.038 Y73.915 E15.0113
G1 X132.015 Y108.043 E16.71396
G1 X131.975 Y108.547 E16.73918
G1 X131.887 Y108.936 E16.75908
G1 X131.677 Y109.657 E16.79654
G1 X131.498 Y110.13 E16.82177
G1 X131.287 Y110.507 E16.84333
G1 X131.082 Y110.822 E16.86208
G1 X130.774 Y111.223 E16.88731
G1 X130.547 Y111.45 E16.90332
G1 X130.065 Y111.886 E16.93575
G1 X129.664 Y112.195 E16.961
G1 X129.128 Y112.476 E16.9912
G1 X128.452 Y112.752 E17.02763
G1 X127.97 Y112.905 E17.05285
G1 X127.543 Y112.975 E17.07444
G1 X127.003 Y113.026 E17.1015
G1 X126.701 Y113.04 E17.11659
G1 X101.733 Y113.03 E18.36224
G1 X101.476 Y113.02 E18.37508
G1 X98.459 Y112.776 E18.52609
G1 X92.962 Y112.573 E18.80052
G1 X87.509 Y112.679 E19.07262
G1 X82.013 Y113.098 E19.34761
G1 X79.219 Y113.429 E19.48798
G1 X78.714 Y113.448 E19.51319
G1 X78.347 Y113.412 E19.53159
G1 X72.956 Y112.567 E19.80383
G1 X67.463 Y112.017 E20.07925
G1 X65.201 Y111.87 E20.19234
G1 X64.701 Y111.798 E20.21754
G1 X64.234 Y111.653 E20.24194
G1 X63.444 Y111.341 E20.28432
G1 X62.989 Y111.119 E20.30957
G1 X62.418 Y110.688 E20.34526
G1 X61.906 Y110.203 E20.38045
G1 X61.568 Y109.828 E20.40564
G1 X61.261 Y109.343 E20.43427
G1 X60.985 Y108.806 E20.4644
G1 X60.79 Y108.339 E20.48964
G1 X60.663 Y107.791 E20.51771
G1 X60.555 Y107.028 E20.55615
G1 X60.523 Y106.579 E20.57861
G1 X60.532 Y72.113 E22.29813
G1 X60.572 Y71.609 E22.32335
G1 X60.638 Y71.296 E22.33931
G1 X60.85 Y70.494 E22.3807
G1 X61.018 Y70.017 E22.40593
G1 X61.361 Y69.423 E22.44015
G1 X61.737 Y68.909 E22.47192
G1 F1500 E15.97192
G0 F3600 X63.635 Y70.558
G0 X64.611 Y71.393
G0 X64.8 Y71.294
G0 X64.73 Y71.224
;TYPE:WALL-INNER
G1 F1500 E22.47192
G1 F1800 X64.898 Y71.079 E22.48299
G1 X65.082 Y70.967 E22.49374
G1 X65.283 Y70.884 E22.50459
G1 X65.505 Y70.83 E22.51599
G1 X65.74 Y70.812 E22.52774
G1 X90.697 Y70.812 E23.77285
G1 X90.933 Y70.831 E23.78467
G1 X91.152 Y70.883 E23.7959
G1 X91.354 Y70.967 E23.80681
G1 X91.541 Y71.081 E23.81774
G1 X91.709 Y71.225 E23.82878
G1 X91.849 Y71.39 E23.83957
G1 X91.961 Y71.57 E23.85015
G1 X92.048 Y71.782 E23.86158
G1 X92.098 Y71.99 E23.87225
G1 X92.118 Y72.338 E23.88964
G1 X92.118 Y106.694 E25.60367
G1 X92.101 Y106.924 E25.61518
G1 X92.047 Y107.145 E25.62653
G1 X91.964 Y107.344 E25.63729
G1 X91.845 Y107.54 E25.64873
G1 X91.708 Y107.701 E25.65927
G1 X91.545 Y107.84 E25.66996
G1 X91.353 Y107.957 E25.68118
G1 X91.148 Y108.041 E25.69223
G1 X90.936 Y108.092 E25.70311
G1 X90.698 Y108.111 E25.71502
G1 X85.318 Y108.111 E25.98343
G1 X85.318 Y106.111 E26.08321
G1 X72.118 Y106.111 E26.74176
G1 X72.118 Y108.111 E26.84154
G1 X65.738 Y108.111 E27.15984
G1 X65.501 Y108.092 E27.1717
G1 X65.289 Y108.042 E27.18257
G1 X65.083 Y107.956 E27.19371
G1 X64.892 Y107.839 E27.20488
G1 X64.731 Y107.702 E27.21543
G1 X64.587 Y107.534 E27.22647
G1 X64.473 Y107.347 E27.23739
G1 X64.389 Y107.145 E27.24831
G1 X64.337 Y106.926 E27.25954
G1 X64.318 Y106.692 E27.27125
G1 X64.318 Y72.231 E28.99052
G1 X64.337 Y71.997 E29.00223
G1 X64.39 Y71.773 E29.01371
G1 X64.471 Y71.579 E29.0242
G1 X64.585 Y71.392 E29.03513
G1 X64.73 Y71.224 E29.0462
G0 F3600 X64.446 Y70.94
;TYPE:WALL-OUTER
G1 F1800 X64.662 Y70.755 E29.06039
G1 X64.9 Y70.609 E29.07432
G1 X65.16 Y70.502 E29.08834
G1 X65.442 Y70.434 E29.10282
G1 X65.722 Y70.412 E29.11683
G1 X90.715 Y70.412 E30.36374
G1 X90.994 Y70.434 E30.3777
G1 X91.278 Y70.502 E30.39227
G1 X91.534 Y70.608 E30.40609
G1 X91.777 Y70.757 E30.42031
G1 X91.994 Y70.942 E30.43454
G1 X92.172 Y71.152 E30.44827
G1 X92.32 Y71.392 E30.46234
G1 X92.429 Y71.655 E30.47654
G1 X92.495 Y71.93 E30.49065
G1 X92.518 Y72.338 E30.51104
G1 X92.518 Y106.711 E32.22592
G1 X92.497 Y106.987 E32.23973
G1 X92.429 Y107.268 E32.25415
G1 X92.32 Y107.529 E32.26826
G1 X92.171 Y107.774 E32.28257
G1 X91.992 Y107.985 E32.29637
G1 X91.781 Y108.164 E32.31018
G1 X91.534 Y108.315 E32.32462
G1 X91.271 Y108.423 E32.3388
G1 X90.999 Y108.489 E32.35277
G1 X90.716 Y108.511 E32.36693
G1 X84.918 Y108.511 E32.65619
G1 X84.918 Y106.511 E32.75597
G1 X72.518 Y106.511 E33.37461
G1 X72.518 Y108.511 E33.47439
G1 X65.72 Y108.511 E33.81354
G1 X65.438 Y108.489 E33.82766
G1 X65.164 Y108.423 E33.84172
G1 X64.9 Y108.314 E33.85597
G1 X64.658 Y108.165 E33.87015
G1 X64.448 Y107.987 E33.88388
G1 X64.263 Y107.77 E33.89811
G1 X64.114 Y107.527 E33.91233
G1 X64.008 Y107.271 E33.92615
G1 X63.94 Y106.987 E33.94072
G1 X63.918 Y106.711 E33.95453
G1 X63.918 Y72.212 E35.6757
G1 X63.94 Y71.936 E35.68951
G1 X64.008 Y71.652 E35.70408
G1 X64.115 Y71.394 E35.71801
G1 X64.261 Y71.156 E35.73194
G1 X64.446 Y70.94 E35.74613
G0 F3600 X64.598 Y70.81
G0 X65.002 Y71.225
;TYPE:SKIN
G1 F1800 X91.938 Y98.16 E37.64658
G1 X92.008 Y98.23
G0 F3600 X91.938 Y97.594
G1 F1800 X65.386 Y71.043 E39.51993
G1 X65.316 Y70.973
G0 F3600 X65.9 Y70.992
G1 F1800 X91.938 Y97.029 E41.35701
G1 X92.008 Y97.099
G0 F3600 X91.938 Y96.463
G1 F1800 X66.466 Y70.992 E43.15417
G1 X66.396 Y70.922
G0 F3600 X67.032 Y70.992
G1 F1800 X91.938 Y95.897 E44.91138
G1 X92.008 Y95.967
G0 F3600 X91.938 Y95.332
G1 F1800 X67.597 Y70.992 E46.62874
G1 X67.527 Y70.922
G0 F3600 X68.163 Y70.992
G1 F1800 X91.938 Y94.766 E48.30616
G1 X92.008 Y94.836
G0 F3600 X91.938 Y94.2
G1 F1800 X68.729 Y70.992 E49.94364
G1 X68.659 Y70.922
G0 F3600 X69.295 Y70.992
G1 F1800 X91.938 Y93.635 E51.54123
G1 X92.008 Y93.705
G0 F3600 X91.938 Y93.069
G1 F1800 X69.86 Y70.992 E53.09891
G1 X69.79 Y70.922
G0 F3600 X70.426 Y70.992
G1 F1800 X91.938 Y92.503 E54.61667
G1 X92.008 Y92.573
G0 F3600 X91.938 Y91.938
G1 F1800 X70.992 Y70.992 E56.09452
G1 X70.922 Y70.922
G0 F3600 X71.557 Y70.992
G1 F1800 X91.938 Y91.372 E57.53247
G1 X92.008 Y91.442
G0 F3600 X91.938 Y90.806
G1 F1800 X72.123 Y70.992 E58.93049
G1 X72.053 Y70.922
G0 F3600 X72.689 Y70.992
G1 F1800 X91.938 Y90.24 E60.28858
G1 X92.008 Y90.31
G0 F3600 X91.938 Y89.675
G1 F1800 X73.254 Y70.992 E61.6068
G1 X73.184 Y70.922
G0 F3600 X73.82 Y70.992
G1 F1800 X91.938 Y89.109 E62.88509
G1 X92.008 Y89.179
G0 F3600 X91.938 Y88.543
G1 F1800 X74.386 Y70.992 E64.12344
G1 X74.316 Y70.922
G0 F3600 X74.951 Y70.992
G1 F1800 X91.938 Y87.978 E65.32193
G1 X92.008 Y88.048
G0 F3600 X91.938 Y87.412
G1 F1800 X75.517 Y70.992 E66.48049
G1 X75.447 Y70.922
G0 F3600 X76.083 Y70.992
G1 F1800 X91.938 Y86.846 E67.59911
G1 X92.008 Y86.916
G0 F3600 X91.938 Y86.281
G1 F1800 X76.648 Y70.992 E68.67786
G1 X76.578 Y70.922
G0 F3600 X77.214 Y70.992
G1 F1800 X91.938 Y85.715 E69.71669
G1 X92.008 Y85.785
G0 F3600 X91.938 Y85.149
G1 F1800 X77.78 Y70.992 E70.71558
G1 X77.71 Y70.922
G0 F3600 X78.346 Y70.992
G1 F1800 X91.938 Y84.584 E71.67456
G1 X92.008 Y84.654
G0 F3600 X91.938 Y84.018
G1 F1800 X78.911 Y70.992 E72.59365
G1 X78.841 Y70.922
G0 F3600 X79.477 Y70.992
G1 F1800 X91.938 Y83.452 E73.47281
G1 X92.008 Y83.522
G0 F3600 X91.938 Y82.887
G1 F1800 X80.043 Y70.992 E74.31207
G1 X79.973 Y70.922
G0 F3600 X80.608 Y70.992
G1 F1800 X91.938 Y82.321 E75.11142
G1 X92.008 Y82.391
G0 F3600 X91.938 Y81.755
G1 F1800 X81.174 Y70.992 E75.87085
G1 X81.104 Y70.922
G0 F3600 X81.74 Y70.992
G1 F1800 X91.938 Y81.19 E76.59037
G1 X92.008 Y81.26
G0 F3600 X91.938 Y80.624
G1 F1800 X82.305 Y70.992 E77.27
G1 X82.235 Y70.922
G0 F3600 X82.871 Y70.992
G1 F1800 X91.938 Y80.058 E77.90969
G1 X92.008 Y80.128
G0 F3600 X91.938 Y79.492
G1 F1800 X83.437 Y70.992 E78.50944
G1 X83.367 Y70.922
G0 F3600 X84.002 Y70.992
G1 F1800 X91.938 Y78.927 E79.06933
G1 X92.008 Y78.997
G0 F3600 X91.938 Y78.361
G1 F1800 X84.568 Y70.992 E79.58929
G1 X84.498 Y70.922
G0 F3600 X85.134 Y70.992
G1 F1800 X91.938 Y77.795 E80.06932
G1 X92.008 Y77.865
G0 F3600 X91.938 Y77.23
G1 F1800 X85.699 Y70.992 E80.50948
G1 X85.629 Y70.922
G0 F3600 X86.265 Y70.992
G1 F1800 X91.938 Y76.664 E80.9097
G1 X92.008 Y76.734
G0 F3600 X91.938 Y76.098
G1 F1800 X86.831 Y70.992 E81.26999
G1 X86.761 Y70.922
G0 F3600 X87.396 Y70.992
G1 F1800 X91.938 Y75.533 E81.59042
G1 X92.008 Y75.603
G0 F3600 X91.938 Y74.967
G1 F1800 X87.962 Y70.992 E81.87091
G1 X87.892 Y70.922
G0 F3600 X88.528 Y70.992
G1 F1800 X91.938 Y74.401 E82.11147
G1 X92.008 Y74.471
G0 F3600 X91.938 Y73.836
G1 F1800 X89.094 Y70.992 E82.31213
G1 X89.024 Y70.922
G0 F3600 X89.659 Y70.992
G1 F1800 X91.938 Y73.27 E82.47289
G1 X92.008 Y73.34
G0 F3600 X91.938 Y72.704
G1 F1800 X90.225 Y70.992 E82.59372
G1 X90.155 Y70.922
G0 F3600 X90.799 Y71
G1 F1800 X91.925 Y72.126 E82.67316
G1 X91.995 Y72.196
G0 F3600 X91.938 Y98.726
G1 F1800 X64.722 Y71.511 E84.59336
G1 X64.652 Y71.441
G0 F3600 X64.545 Y71.899
G1 F1800 X91.938 Y99.291 E86.52605
G1 X92.008 Y99.361
G0 F3600 X91.938 Y99.857
G1 F1800 X64.498 Y72.417 E88.46209
G1 X64.428 Y72.347
G0 F3600 X64.498 Y72.983
G1 F1800 X91.938 Y100.423 E90.39813
G1 X92.008 Y100.493
G0 F3600 X91.938 Y100.988
G1 F1800 X64.498 Y73.549 E92.33414
G1 X64.428 Y73.479
G0 F3600 X64.498 Y74.114
G1 F1800 X91.938 Y101.554 E94.27018
G1 X92.008 Y101.624
G0 F3600 X91.938 Y102.12
G1 F1800 X64.498 Y74.68 E96.20622
G1 X64.428 Y74.61
G0 F3600 X64.498 Y75.246
G1 F1800 X91.938 Y102.686 E98.14226
G1 X92.008 Y102.756
G0 F3600 X91.938 Y103.251
G1 F1800 X64.498 Y75.811 E100.0783
G1 X64.428 Y75.741
G0 F3600 X64.498 Y76.377
G1 F1800 X91.938 Y103.817 E102.01434
G1 X92.008 Y103.887
G0 F3600 X91.938 Y104.383
G1 F1800 X64.498 Y76.943 E103.95038
G1 X64.428 Y76.873
G0 F3600 X64.498 Y77.508
G1 F1800 X91.938 Y104.948 E105.88642
G1 X92.008 Y105.018
G0 F3600 X91.938 Y105.514
G1 F1800 X64.498 Y78.074 E107.82246
G1 X64.428 Y78.004
G0 F3600 X64.498 Y78.64
G1 F1800 X91.938 Y106.08 E109.7585
G1 X92.008 Y106.15
G0 F3600 X91.938 Y106.645
G1 F1800 X64.498 Y79.205 E111.69454
G1 X64.428 Y79.135
G0 F3600 X64.498 Y79.771
G1 F1800 X91.857 Y107.13 E113.62487
G1 X91.927 Y107.2
G0 F3600 X91.65 Y107.49
G1 F1800 X64.498 Y80.337 E115.54062
G1 X64.428 Y80.267
G0 F3600 X64.498 Y80.902
G1 F1800 X91.344 Y107.749 E117.43479
G1 X91.414 Y107.819
G0 F3600 X90.936 Y107.906
G1 F1800 X64.498 Y81.468 E119.30013
G1 X64.428 Y81.398
G0 F3600 X64.498 Y82.034
G1 F1800 X90.393 Y107.929 E121.12716
G1 X90.463 Y107.999
G0 F3600 X89.828 Y107.929
G1 F1800 X64.498 Y82.599 E122.91433
G1 X64.428 Y82.529
G0 F3600 X64.498 Y83.165
G1 F1800 X89.262 Y107.929 E124.66156
G1 X89.332 Y107.999
G0 F3600 X88.696 Y107.929
G1 F1800 X64.498 Y83.731 E126.36886
G1 X64.428 Y83.661
G0 F3600 X64.498 Y84.297
G1 F1800 X88.13 Y107.929 E128.03623
G1 X88.2 Y107.999
G0 F3600 X87.565 Y107.929
G1 F1800 X64.498 Y84.862 E129.66373
G1 X64.428 Y84.792
G0 F3600 X64.498 Y85.428
G1 F1800 X84.999 Y105.93 E131.11022
G1 X85.069 Y106
G0 F3600 X84.434 Y105.93
G1 F1800 X64.498 Y85.994 E132.51681
G1 X64.428 Y85.924
G0 F3600 X64.498 Y86.559
G1 F1800 X83.868 Y105.93 E133.88351
G1 X83.938 Y106
G0 F3600 X83.302 Y105.93
G1 F1800 X64.498 Y87.125 E135.21027
G1 X64.428 Y87.055
G0 F3600 X64.498 Y87.691
G1 F1800 X82.737 Y105.93 E136.49713
G1 X82.807 Y106
G0 F3600 X82.171 Y105.93
G1 F1800 X64.498 Y88.256 E137.74409
G1 X64.428 Y88.186
G0 F3600 X64.498 Y88.822
G1 F1800 X81.605 Y105.93 E138.95111
G1 X81.675 Y106
G0 F3600 X81.04 Y105.93
G1 F1800 X64.498 Y89.388 E140.11824
G1 X64.428 Y89.318
G0 F3600 X64.498 Y89.953
G1 F1800 X80.474 Y105.93 E141.24547
G1 X80.544 Y106
G0 F3600 X79.908 Y105.93
G1 F1800 X64.498 Y90.519 E142.33276
G1 X64.428 Y90.449
G0 F3600 X64.498 Y91.085
G1 F1800 X79.343 Y105.93 E143.38016
G1 X79.413 Y106
G0 F3600 X78.777 Y105.93
G1 F1800 X64.498 Y91.65 E144.38766
G1 X64.428 Y91.58
G0 F3600 X64.498 Y92.216
G1 F1800 X78.211 Y105.93 E145.35522
G1 X78.281 Y106
G0 F3600 X77.645 Y105.93
G1 F1800 X64.498 Y92.782 E146.28284
G1 X64.428 Y92.712
G0 F3600 X64.498 Y93.347
G1 F1800 X77.08 Y105.93 E147.17061
G1 X77.15 Y106
G0 F3600 X76.514 Y105.93
G1 F1800 X64.498 Y93.913 E148.01844
G1 X64.428 Y93.843
G0 F3600 X64.498 Y94.479
G1 F1800 X75.948 Y105.93 E148.82633
G1 X76.018 Y106
G0 F3600 X75.383 Y105.93
G1 F1800 X64.498 Y95.045 E149.59433
G1 X64.428 Y94.975
G0 F3600 X64.498 Y95.61
G1 F1800 X74.817 Y105.93 E150.32242
G1 X74.887 Y106
G0 F3600 X74.251 Y105.93
G1 F1800 X64.498 Y96.176 E151.01059
G1 X64.428 Y96.106
G0 F3600 X64.498 Y96.742
G1 F1800 X73.686 Y105.93 E151.65885
G1 X73.756 Y106
G0 F3600 X73.12 Y105.93
G1 F1800 X64.498 Y97.307 E152.26721
G1 X64.428 Y97.237
G0 F3600 X64.498 Y97.873
G1 F1800 X72.554 Y105.93 E152.83564
G1 X72.624 Y106
G0 F3600 X71.989 Y105.93
G1 F1800 X64.498 Y98.439 E153.36417
G1 X64.428 Y98.369
G0 F3600 X64.498 Y99.004
G1 F1800 X71.938 Y106.445 E153.88914
G1 X72.008 Y106.515
G0 F3600 X71.938 Y107.01
G1 F1800 X64.498 Y99.57 E154.41407
G1 X64.428 Y99.5
G0 F3600 X64.498 Y100.136
G1 F1800 X71.938 Y107.576 E154.939
G1 X72.008 Y107.646
G0 F3600 X71.726 Y107.929
G1 F1800 X64.498 Y100.701 E155.44898
